X:1
T:With Gladness Men of Old
M:4/4
L:1/4
K:G
 GF/2-G/2 A G| c c B2| E F G E| D D D2| GF/2-G/2 A G| c c B2| E F G E|\
 D D D2| B A G B| d3/2 c/2 B2| E F G c| B A G2|
